remix/System/upload-cloud-2-fill.svg

<svg viewBox="0 0 24 24" fill="currentColor" xmlns="http://www.w3.org/2000/svg"><path d="M12 12.5858L16.2426 16.8284L14.8284 18.2426L13 16.415V22H11V16.413L9.17157 18.2426L7.75736 16.8284L12 12.5858ZM12 2C15.5934 2 18.5544 4.70761 18.9541 8.19395C21.2858 8.83154 23 10.9656 23 13.5C23 16.3688 20.8036 18.7246 18.0006 18.9776L18 17C18 13.6863 15.3137 11 12 11C8.7616 11 6.12243 13.5656 6.00414 16.7751L6 17L6.00039 18.9776C3.19696 18.7252 1 16.3692 1 13.5C1 10.9656 2.71424 8.83154 5.04648 8.19411C5.44561 4.70761 8.40661 2 12 2Z"/></svg>

<svg viewBox="0 0 24 24" xmlns="http://www.w3.org/2000/svg"><path fill="none" d="M0 0h24v24H0Z"/><path d="M12 12.58l4.24 4.24 -1.42 1.41 -1.83-1.83v5.58h-2V16.39l-1.83 1.83L7.74 16.8l4.24-4.25Zm0-10.59v0c3.55 0 6.54 2.66 6.95 6.19v0c2.93.79 4.65 3.82 3.85 6.75 -.61 2.21-2.53 3.82-4.82 4.03l-.01-1.98v0c0-3.32-2.69-6.01-6-6.01 -3.24-.01-5.89 2.55-6.01 5.78l-.01.22v1.97H5.94C2.91 18.66.68 15.99.95 12.96c.2-2.29 1.81-4.21 4.03-4.82H4.98c.4-3.54 3.39-6.2 6.95-6.2Z"/></svg>
